svgs/light/gears.svg

<svg xmlns="http://www.w3.org/2000/svg" viewBox="0 0 640 512"><!--! Font Awesome Pro 6.0.0-alpha3 by @fontawesome - https://fontawesome.com License - https://fontawesome.com/license (Commercial License) --><path d="M160 120c-30.88 0-56 25.12-56 56S129.1 232 160 232S216 206.9 216 176S190.9 120 160 120zM160 200c-13.23 0-24-10.78-24-24S146.8 152 160 152S184 162.8 184 176S173.2 200 160 200zM627.8 318.3c-2.422-11.69-12.95-20.11-25.03-20.11H582.9c-3.531-7.812-7.828-15.23-12.84-22.23l9.969-17.27c2.234-3.906 3.461-8.401 3.461-12.87c0-7.25-3.078-14.15-8.469-18.97C558 211.7 538.4 200.4 516.8 193.3c-11.34-3.688-23.98 1.102-30.07 11.57l-9.641 16.69c-8.781-.9375-17.22-.9766-26.28-.0078L441.2 204.9c-6.062-10.47-18.66-15.4-30.04-11.59c-21.59 7.125-41.1 18.36-58.21 33.52c-5.344 4.781-8.508 11.74-8.508 18.99c0 4.469 1.18 8.901 3.445 12.87l9.812 16.98c-5.109 7.094-9.461 14.62-13.04 22.52h-19.5c-12.08 0-22.62 8.477-25.02 20.13c-2.375 11.31-3.57 22.66-3.57 33.72s1.203 22.46 3.562 33.74c2.422 11.69 12.95 20.1 25.03 20.1h19.5c3.578 7.906 7.93 15.43 13.04 22.52l-9.797 16.98c-2.234 3.906-3.461 8.396-3.461 12.87c0 7.312 3.117 14.26 8.461 18.95c17.05 15.12 36.65 26.4 58.23 33.55c11.41 3.719 23.99-1.086 30.05-11.55l9.641-16.7c9.047 .9687 17.36 .9766 26.28-.0234l9.656 16.73C491.5 507.3 500.1 512 508.1 512c2.609 0 5.266-.3965 7.844-1.271c21.61-7.156 41.28-18.48 58.25-33.55c5.422-4.75 8.469-11.65 8.469-18.96c0-4.469-1.195-8.896-3.461-12.87l-9.969-17.27c5.016-7 9.312-14.43 12.84-22.24h19.87c12.08 0 22.62-8.468 25.02-20.12C630.2 374.4 631.4 363.1 631.4 352S630.2 329.5 627.8 318.3zM597.5 373.8h-36.73l-3.75 10.72c-4.062 11.62-10.23 22.31-18.33 31.72l-7.391 8.625l18.39 31.84c-11.39 9.312-24.08 16.62-37.88 21.81l-18.11-31.41l-11.17 2.125c-12.03 2.312-25.05 2.312-37.14 .0313l-11.16-2.125l-18.08 31.38c-13.77-5.156-26.45-12.47-37.88-21.81l18.27-31.62l-7.438-8.625c-8.188-9.469-14.42-20.22-18.52-31.94l-3.75-10.72h-36.38C329.2 366.5 328.6 359.2 328.6 352c0-7.125 .625-14.47 1.891-21.84h36.38l3.75-10.72c4.094-11.72 10.33-22.47 18.52-31.94l7.438-8.625l-18.28-31.62c11.41-9.312 24.11-16.62 37.89-21.81l18.08 31.38l11.16-2.125c12.06-2.281 25.05-2.344 37.08 .0313l11.22 2.188l18.12-31.47c13.78 5.188 26.5 12.5 37.89 21.81l-18.41 31.84l7.391 8.625c8.094 9.406 14.27 20.09 18.33 31.72l3.75 10.72h36.73c1.25 7.375 1.891 14.69 1.891 21.84C599.4 359.1 598.8 366.5 597.5 373.8zM307.1 198.8L290.5 189.2c.5-4.469 .7344-8.781 .7344-12.97c0-4.375-.25-8.781-.75-13.31l16.72-9.656C317.6 147.1 322.5 134.5 318.7 123.2C311.5 101.5 300.3 81.94 285.1 64.88C277.4 56.16 263.4 54.06 253.4 59.94L236.1 69.91c-7-5.031-14.42-9.312-22.23-12.84V37.19c0-12-8.422-22.53-20.12-25.03c-22.5-4.75-44.86-4.75-67.52 0c-11.62 2.5-20.06 13.03-20.06 25.03v19.88C98.34 60.59 90.91 64.88 83.92 69.91L66.7 59.97c-10.19-5.938-24.17-3.75-31.89 4.969c-15.06 17-26.36 36.59-33.53 58.22C-2.5 134.5 2.359 147.1 12.86 153.2l16.69 9.656c-.5 4.531-.75 8.938-.75 13.31c0 4.188 .2344 8.5 .7344 12.97L12.91 198.8C2.359 204.8-2.531 217.4 1.266 228.8c7.203 21.66 18.48 41.25 33.47 58.13c7.688 8.844 21.83 10.94 31.91 5.156l16.98-9.812c7.047 5.094 14.58 9.438 22.52 13.03v19.5c0 12 8.438 22.53 20.14 25.03C137.5 342.2 148.9 343.4 160 343.4s22.47-1.188 33.8-3.562c11.62-2.5 20.05-13.03 20.05-25.03v-19.5c7.938-3.594 15.47-7.938 22.52-13.03l16.94 9.75C263.5 297.1 277.5 295.8 285.2 287.1c15.08-17 26.36-36.59 33.55-58.22C322.5 217.5 317.7 204.8 307.1 198.8zM257.3 157.5c1.156 6.062 1.906 12.31 1.906 18.72c0 6.312-.7656 12.44-1.891 18.44L255.2 205.8l31.33 18.09c-5.188 13.78-12.5 26.47-21.81 37.84L233.1 243.5L224.5 250.9c-9.422 8.125-20.17 14.38-31.95 18.5L181.8 273.2v36.38c-14.67 2.5-29.09 2.5-43.7 0V273.2L127.4 269.4C115.6 265.3 104.9 259 95.5 250.9L86.91 243.4L55.25 261.7c-9.297-11.34-16.61-24.03-21.81-37.84l31.33-18.09L62.69 194.6c-1.125-6-1.891-12.12-1.891-18.44c0-6.406 .75-12.66 1.906-18.72l2.125-11.16l-31.39-18.16c5.188-13.78 12.5-26.47 21.8-37.88l31.86 18.41l8.609-7.375c9.438-8.125 20.11-14.28 31.72-18.34l10.72-3.75V42.47c14.7-2.5 29.09-2.5 43.7 0v36.78l10.73 3.719c11.59 4.062 22.28 10.22 31.72 18.34l8.609 7.375l31.86-18.41c9.297 11.41 16.59 24.09 21.8 37.88l-31.39 18.16L257.3 157.5zM464 296c-30.88 0-56 25.12-56 56s25.12 56 56 56s56-25.12 56-56S494.9 296 464 296zM464 376c-13.23 0-24-10.78-24-24s10.77-24 24-24s24 10.78 24 24S477.2 376 464 376z"/></svg>

<svg xmlns="http://www.w3.org/2000/svg" viewBox="0 0 640 512"><!-- Font Awesome Pro 6.0.0-alpha2 by @fontawesome - https://fontawesome.com License - https://fontawesome.com/license (Commercial License) --><path d="M160.013 120C129.138 120 104.013 145.125 104.013 176S129.138 232 160.013 232S216.013 206.875 216.013 176S190.888 120 160.013 120ZM160.013 200C146.778 200 136.013 189.219 136.013 176S146.778 152 160.013 152S184.013 162.781 184.013 176S173.247 200 160.013 200ZM627.856 318.312C625.434 306.625 614.903 298.156 602.825 298.156H582.966C579.434 290.344 575.138 282.906 570.122 275.906L580.122 258.594C582.356 254.688 583.544 250.25 583.544 245.781C583.544 238.531 580.466 231.625 575.075 226.813C558.013 211.688 538.419 200.406 516.856 193.281C505.513 189.594 492.872 194.375 486.778 204.844L477.153 221.531C468.372 220.594 459.934 220.563 450.872 221.531L441.216 204.813C435.153 194.344 422.575 189.469 411.2 193.281C389.606 200.406 370.013 211.688 352.903 226.844C347.559 231.625 344.481 238.531 344.481 245.781C344.481 250.25 345.669 254.688 347.934 258.656L357.747 275.625C352.638 282.719 348.278 290.25 344.7 298.156H325.2C313.122 298.156 302.591 306.625 300.184 318.281C297.809 329.594 296.606 340.938 296.606 352S297.809 374.406 300.169 385.688C302.591 397.375 313.122 405.844 325.2 405.844H344.7C348.278 413.75 352.638 421.281 357.747 428.375L347.903 445.406C345.669 449.313 344.481 453.75 344.481 458.219C344.481 465.531 347.591 472.469 352.934 477.156C369.981 492.281 389.591 503.563 411.169 510.719C422.575 514.438 435.153 509.656 441.216 499.188L450.872 482.469C459.919 483.438 468.231 483.438 477.153 482.438L486.809 499.188C491.497 507.281 500.106 512 508.981 512C511.591 512 514.247 511.594 516.825 510.719C538.434 503.562 558.044 492.281 575.013 477.219C580.434 472.469 583.544 465.531 583.544 458.219C583.544 453.75 582.356 449.312 580.091 445.344L570.122 428.094C575.138 421.094 579.434 413.656 582.966 405.844H602.825C614.903 405.844 625.434 397.375 627.841 385.719C630.216 374.406 631.419 363.062 631.419 352S630.216 329.594 627.856 318.312ZM597.528 373.844H560.794L557.044 384.562C552.981 396.187 546.809 406.875 538.716 416.281L531.325 424.906L549.716 456.75C538.325 466.062 525.638 473.375 511.841 478.562L493.731 447.156L482.559 449.281C470.528 451.594 457.513 451.594 445.419 449.312L434.263 447.187L416.184 478.562C402.419 473.406 389.731 466.094 378.309 456.75L396.575 425.125L389.138 416.5C380.95 407.031 374.716 396.281 370.622 384.563L366.872 373.844H330.497C329.247 366.469 328.606 359.156 328.606 352C328.606 344.875 329.231 337.531 330.497 330.156H366.872L370.622 319.438C374.716 307.719 380.95 296.969 389.138 287.5L396.575 278.875L378.294 247.25C389.7 237.938 402.403 230.625 416.184 225.438L434.263 256.813L445.419 254.688C457.481 252.406 470.466 252.344 482.497 254.719L493.716 256.906L511.841 225.438C525.622 230.625 538.341 237.938 549.731 247.25L531.325 279.094L538.716 287.719C546.809 297.125 552.981 307.813 557.044 319.438L560.794 330.156H597.528C598.778 337.531 599.419 344.844 599.419 352C599.419 359.125 598.794 366.469 597.528 373.844ZM307.153 198.781L290.481 189.156C290.981 184.688 291.216 180.375 291.216 176.188C291.216 171.812 290.966 167.406 290.466 162.875L307.184 153.219C317.653 147.125 322.513 134.5 318.747 123.188C311.559 101.531 300.263 81.938 285.153 64.875C277.388 56.156 263.388 54.062 253.372 59.938L236.091 69.906C229.091 64.875 221.669 60.594 213.856 57.062V37.188C213.856 25.188 205.434 14.656 193.731 12.156C171.231 7.406 148.872 7.406 126.216 12.156C114.591 14.656 106.153 25.188 106.153 37.188V57.063C98.356 60.594 90.919 64.875 83.934 69.906L66.716 59.969C56.528 54.031 42.544 56.219 34.825 64.937C19.763 81.937 8.466 101.531 1.294 123.156C-2.487 134.5 2.372 147.125 12.872 153.219L29.559 162.875C29.059 167.406 28.809 171.812 28.809 176.187C28.809 180.375 29.044 184.687 29.544 189.156L12.919 198.75C2.372 204.781 -2.519 217.438 1.278 228.812C8.481 250.469 19.763 270.062 34.747 286.937C42.434 295.781 56.575 297.875 66.653 292.094L83.638 282.281C90.684 287.375 98.216 291.719 106.153 295.312V314.812C106.153 326.812 114.591 337.344 126.294 339.844C137.544 342.219 148.888 343.406 160.013 343.406S182.481 342.219 193.809 339.844C205.434 337.344 213.856 326.812 213.856 314.812V295.312C221.794 291.719 229.325 287.375 236.372 282.281L253.309 292.031C263.513 297.969 277.544 295.75 285.184 287.062C300.263 270.062 311.544 250.469 318.731 228.844C322.528 217.469 317.669 204.812 307.153 198.781ZM257.309 157.469C258.466 163.531 259.216 169.781 259.216 176.187C259.216 182.5 258.45 188.625 257.325 194.625L255.247 205.75L286.575 223.844C281.388 237.625 274.075 250.312 264.763 261.688L233.122 243.469L224.513 250.906C215.091 259.031 204.341 265.281 192.559 269.406L181.856 273.156V309.531C167.184 312.031 152.763 312.031 138.153 309.531V273.156L127.45 269.406C115.653 265.25 104.919 259.031 95.513 250.906L86.919 243.438L55.263 261.688C45.966 250.344 38.653 237.656 33.45 223.844L64.778 205.75L62.7 194.625C61.575 188.625 60.809 182.5 60.809 176.187C60.809 169.781 61.559 163.531 62.716 157.469L64.841 146.312L33.45 128.156C38.638 114.375 45.95 101.688 55.247 90.281L87.106 108.687L95.716 101.312C105.153 93.187 115.825 87.031 127.434 82.969L138.153 79.219V42.469C152.856 39.969 167.247 39.969 181.856 42.469V79.25L192.591 82.969C204.184 87.031 214.872 93.187 224.309 101.312L232.919 108.688L264.778 90.281C274.075 101.688 281.372 114.375 286.575 128.156L255.184 146.313L257.309 157.469ZM464.013 296C433.138 296 408.013 321.125 408.013 352S433.138 408 464.013 408S520.013 382.875 520.013 352S494.888 296 464.013 296ZM464.013 376C450.778 376 440.013 365.219 440.013 352S450.778 328 464.013 328S488.013 338.781 488.013 352S477.247 376 464.013 376Z"/></svg>
